inc/ico/grape.1.1.light.svg

<?xml version="1.0" encoding="UTF-8" standalone="no"?><!DOCTYPE svg PUBLIC "-//W3C//DTD SVG 1.1//EN" "http://www.w3.org/Graphics/SVG/1.1/DTD/svg11.dtd"><svg width="100%" height="100%" viewBox="0 0 1200 1200" version="1.1" xmlns="http://www.w3.org/2000/svg" xmlns:xlink="http://www.w3.org/1999/xlink" xml:space="preserve" xmlns:serif="http://www.serif.com/" style="fill-rule:evenodd;clip-rule:evenodd;stroke-linejoin:round;stroke-miterlimit:1.41421;"><g id="grape"><path id="glass" d="M786.323,344c29.464,90.982 55.086,170.125 58.519,180.784c7.404,24.163 11.158,49.466 11.158,75.216c0,68.38 -26.629,132.667 -74.98,181.02c-48.353,48.351 -112.64,74.98 -181.02,74.98c-68.38,0 -132.667,-26.629 -181.02,-74.98c-48.351,-48.353 -74.98,-112.64 -74.98,-181.02c0,-25.726 3.745,-51 11.136,-75.145c3.339,-10.371 29.011,-89.666 58.541,-180.855l372.646,0m186.181,-256l-745.008,0c0,0 -115.364,356.167 -116.537,359.942l-0.019,0.058l0.001,0c-14.909,48.023 -22.941,99.073 -22.941,152c0,282.77 229.23,512 512,512c282.77,0 512,-229.23 512,-512c0,-52.927 -8.032,-103.977 -22.941,-152l0.001,0l-0.019,-0.058c-1.173,-3.775 -116.537,-359.942 -116.537,-359.942Z" style="fill:#f7efcf;fill-opacity:0.5;fill-rule:nonzero;"/><path id="wine" d="M204.642,382.074c82.785,18.078 203.683,91.184 299.678,187.929c95.996,96.744 157.645,190.926 318.177,242.768c60.918,19.672 125.117,21.305 154.65,35.232c14.84,7 11.917,30.566 4.016,41.1c-26.176,34.9 -58.676,64.9 -92.51,82.232c-152.047,77.896 -304.361,61.721 -483.666,-37c-187.971,-103.49 -273.655,-222.27 -282.566,-373.239c-2.952,-50.007 15.235,-115.253 40.177,-160.672c10.388,-18.924 26.716,-21.697 42.044,-18.35Z" style="fill:#f7efcf;fill-rule:nonzero;"/></g></svg>

<?xml version="1.0" encoding="utf-8"?>
<!-- Generator: Adobe Illustrator 16.0.3, SVG Export Plug-In . SVG Version: 6.00 Build 0)  -->
<!DOCTYPE svg PUBLIC "-//W3C//DTD SVG 1.1//EN" "http://www.w3.org/Graphics/SVG/1.1/DTD/svg11.dtd">
<svg version="1.1" id="bean" xmlns="http://www.w3.org/2000/svg" xmlns:xlink="http://www.w3.org/1999/xlink" x="0px" y="0px"
	 width="1200px" height="1200px" viewBox="0 0 1200 1200" enable-background="new 0 0 1200 1200" xml:space="preserve">
<path display="none" fill="#7FAF46" d="M183.524-1004.282c43.361,2.402,73.778-9.494,134.087-33.988
	c150.396-61.082,216.707-136.037,322.483-262.489c78.303-93.604,181.578-129.655,334.611-154.595
	c12.272-2,6.07-38.002-14.554-61.654c-105.291-120.749-283.751-144.529-544.146-10.347c-277.508,143-337,410.334-262.333,505.002
	C159.333-1015.177,174.695-1004.771,183.524-1004.282z"/>
<path display="none" fill="#7FAF46" d="M993.352-1420.281c-82.785,18.078-203.683,91.184-299.678,187.929
	c-95.996,96.744-157.645,190.926-318.177,242.768c-60.918,19.672-125.117,21.305-154.65,35.232c-14.84,7-11.917,30.566-4.016,41.1
	c26.176,34.9,58.676,64.9,92.51,82.232c152.047,77.896,304.361,61.721,483.666-37c187.971-103.49,273.655-222.27,282.566-373.239
	c2.952-50.007-15.235-115.252-40.177-160.672C1025.007-1420.855,1008.679-1423.629,993.352-1420.281z"/>
<g display="none">
	<circle display="inline" fill="#7FAF46" cx="600" cy="-1200" r="512"/>
	<polygon display="inline" fill="#7FAF46" points="1089.06,-1352 110.94,-1352 227.496,-1712 972.504,-1712 	"/>
</g>
<path display="none" fill="#7FAF46" d="M991.345-1417.926c-82.785,18.078-203.683,91.184-299.678,187.929
	c-95.996,96.744-157.645,190.926-318.177,242.768c-60.918,19.672-125.117,21.305-154.65,35.232c-14.84,7-11.917,30.566-4.016,41.1
	c26.176,34.9,58.676,64.9,92.51,82.232c152.047,77.896,304.361,61.721,483.666-37c187.971-103.49,273.655-222.27,282.566-373.239
	c2.952-50.007-15.235-115.252-40.177-160.672C1023-1418.5,1006.672-1421.273,991.345-1417.926z"/>
<path display="none" opacity="0.5" fill="#7FAF46" d="M1019.53-1433.398l-24.03-0.002c0,0,60.5,86.188,60.5,233.4
	c0,147.906-50.703,233.233-50.703,233.233v24C1052.588-1017.119,1080-1105.354,1080-1200
	C1080-1284.718,1058.05-1364.308,1019.53-1433.398z"/>
<path display="none" opacity="0.5" fill="#7FAF46" d="M180.47-1433.398C141.95-1364.308,120-1284.718,120-1200
	c0,212.612,138.236,392.931,329.73,456H750.27C941.764-807.069,1080-987.388,1080-1200c0-84.718-21.95-164.308-60.47-233.398H180.47
	z"/>
<path display="none" fill="#7FAF46" d="M1019.53-1433.398c0,0,35.848,77.334,35.848,245.379
	c0,142.121-110.181,208.959-110.181,208.959c81.46,0,74.333-45.032,74.333-16.62c0,24.821-14.288,53.04-14.288,53.04
	c40.265-94.872,64.247-146.876,63.862-245.379C1068.759-1276.63,1080-1284.214,1019.53-1433.398z"/>
<path display="none" fill="#7FAF46" d="M811.435-1638H915l72.688,193.985C915-1638,811.435-1638,811.435-1638z"/>
<path display="none" fill="#7FAF46" d="M1057.06-1320l-0.019-0.058c-1.173-3.774-2.391-7.529-3.647-11.266L943.094-1672H829.925
	c0,0,113.169,0,233.444,374.165C1061.422-1305.289,1059.33-1312.684,1057.06-1320L1057.06-1320z"/>
<path display="none" fill="#7FAF46" d="M809.041-1352.058l0.019,0.058h-0.001c14.909,48.023,22.941,99.073,22.941,152
	c0,219.97-138.721,407.535-333.449,480h139.977C833.268-792.458,972-980.022,972-1200c0-52.927-8.032-103.977-22.941-152h0.001
	l-0.019-0.058c-0.956-3.077-77.812-240.378-106.172-327.942h-140C731.229-1592.437,808.085-1355.135,809.041-1352.058z"/>
<path display="none" fill="#7FAF46" d="M949.06-1352l-0.019-0.058c-0.956-3.077-77.812-240.378-106.172-327.942h-140
	c28.36,87.563,105.216,324.865,106.172,327.942l0.019,0.058h-0.001c14.909,48.023,22.941,99.073,22.941,152
	c0,152.932-67.066,290.185-173.375,384h139.992C904.93-909.813,972-1047.065,972-1200C972-1252.927,963.968-1303.977,949.06-1352
	L949.06-1352z"/>
<path display="none" opacity="0.5" fill="#7FAF46" d="M949.059-1352L949.059-1352l-0.018-0.058
	C947.868-1355.833,832.504-1712,832.504-1712h-140c0,0,115.364,356.167,116.537,359.942l0.019,0.058h-0.001
	c14.909,48.023,22.941,99.073,22.941,152c0,234.221-157.274,431.707-371.977,492.616c22.723,6.444,46.086,11.364,69.977,14.631
	C779.651-726.886,972-940.977,972-1200C972-1252.927,963.968-1303.977,949.059-1352z"/>
<path display="none" opacity="0.5" fill="#7FAF46" d="M809.06-1352L809.06-1352c14.908,48.023,22.94,99.073,22.94,152
	c0,173.846-86.644,327.454-219.104,420H307.115c82.992,57.982,183.964,92,292.885,92s209.893-34.018,292.885-92h-140
	C885.35-872.543,972-1026.15,972-1200c0-52.927-8.032-103.977-22.941-152h0.001l-0.019-0.058
	C947.868-1355.833,832.504-1712,832.504-1712h-140c0,0,115.364,356.167,116.537,359.942L809.06-1352z"/>
<rect x="307" y="-780" display="none" fill="#7FAF46" width="586" height="96"/>
<path display="none" opacity="0.5" fill="#7FAF46" d="M972-1200c0-52.927-8.032-103.977-22.941-152h0.001l-0.019-0.058
	C947.868-1355.833,832.504-1712,832.504-1712h-140c0,0,115.364,356.167,116.537,359.942l0.019,0.058h-0.001
	c14.909,48.023,22.941,99.073,22.941,152c0,173.846-86.644,327.454-219.104,420H307v96h586v-96H752.885
	C885.35-872.543,972-1026.15,972-1200z"/>
<path display="none" opacity="0.5" fill="#7FAF46" d="M307.115-780c82.992,57.982,183.964,92,292.885,92s209.893-34.018,292.885-92
	H307.115z"/>
<rect x="88" y="-876" display="none" fill="#7FAF46" width="1024" height="192"/>
<path display="none" fill="#BBCF99" d="M1112-1200c0-52.927-8.032-103.977-22.941-152h0.001l-0.019-0.058
	C1087.868-1355.833,972.504-1712,972.504-1712h-140c0,0,115.364,356.167,116.537,359.942l0.019,0.058h-0.001
	c14.909,48.023,22.941,99.073,22.941,152c0,122.934-43.331,235.743-115.547,324H203.547
	c81.457,99.554,199.667,167.868,333.916,184.218c0.015,0.002,0.063,0.003,0.133,0.003C558.05-689.293,578.874-688,600-688
	c55.641,0,109.207-8.881,159.363-25.293c0.191-0.063,0.388-0.123,0.576-0.186c0.119-0.039,0.235-0.084,0.354-0.124
	C964.551-780.878,1112-973.217,1112-1200z"/>
<g display="none">
	<path fill="#BBCF99" d="M951.18-876c-19.392,19.664-40.68,36.144-62.527,47.335c-152.047,77.896-304.361,61.721-483.666-37
		c-6.226-3.428-12.331-6.873-18.333-10.335H203.547C297.439-761.247,440.164-688,600-688s302.561-73.247,396.453-188H951.18z"/>
	<path fill="#7FAF46" d="M949.06-1352L949.06-1352c14.908,48.023,22.94,99.073,22.94,152c0,20.198-1.185,40.119-3.46,59.707
		c0.004,0.018,0.012,0.049,0.012,0.049c-0.007,0.008-0.013,0.016-0.021,0.023c-5.004,43.029-15.338,84.432-30.334,123.526
		c24.082,8.236,43.918,12.569,66.389,12.712c3.872,0.025,7.824-0.074,11.889-0.3c2.207-0.122,4.823-0.864,7.594-2.021
		c1.038-0.434,3.882-1.83,4.239-2.02c7.153-3.799,14.481-9.545,18.018-14.03c29.103-36.897,37.824-100.026,21.2-171.8L907.725-1712
		h-75.221c0,0,115.364,356.167,116.537,359.942L949.06-1352z"/>
</g>
<path display="none" fill="#BBCF99" d="M203.547-876C297.439-761.247,440.164-688,600-688s302.561-73.247,396.453-188H203.547z"/>
<g>
	<g opacity="0.5">
		<g>
			<path fill="#BBCC87" d="M-1200-1456c68.38,0,132.667,26.628,181.02,74.98C-970.629-1332.667-944-1268.38-944-1200
				s-26.629,132.667-74.98,181.02C-1067.333-970.629-1131.62-944-1200-944s-132.667-26.629-181.019-74.98
				C-1429.372-1067.333-1456-1131.62-1456-1200s26.628-132.667,74.981-181.02C-1332.667-1429.372-1268.38-1456-1200-1456
				 M-1200-1712c-282.769,0-512,229.23-512,512s229.231,512,512,512c282.77,0,512-229.23,512-512S-917.23-1712-1200-1712L-1200-1712
				z"/>
		</g>
	</g>
	<path fill="#7FAF46" d="M-1618.482-1001.927c43.361,2.402,73.778-9.494,134.087-33.988
		c150.396-61.082,216.707-136.037,322.483-262.488c78.303-93.604,181.578-129.655,334.611-154.596
		c12.272-2,6.07-38.001-14.554-61.653C-947.146-1635.401-1125.605-1659.182-1386-1525c-277.508,143.001-337,410.335-262.333,505.003
		C-1642.674-1012.821-1627.312-1002.415-1618.482-1001.927z"/>
	<path fill="#7FAF46" d="M-808.655-1417.926c-82.785,18.078-203.683,91.184-299.678,187.929
		c-95.996,96.744-157.645,190.926-318.177,242.768c-60.918,19.672-125.117,21.305-154.65,35.232c-14.84,7-11.917,30.566-4.016,41.1
		c26.176,34.9,58.676,64.9,92.51,82.232c152.047,77.896,304.361,61.721,483.666-37c187.971-103.49,273.655-222.27,282.566-373.239
		c2.952-50.007-15.235-115.253-40.177-160.672C-777-1418.5-793.328-1421.273-808.655-1417.926z"/>
</g>
<g>
	<rect x="-1800" display="none" fill="#7FAF46" width="1200" height="1200"/>
	<path opacity="0.5" fill="#F7EFCF" d="M-1200,344c68.38,0,132.667,26.629,181.02,74.98C-970.629,467.333-944,531.62-944,600
		s-26.629,132.667-74.98,181.02C-1067.333,829.371-1131.62,856-1200,856s-132.667-26.629-181.019-74.98
		C-1429.372,732.667-1456,668.38-1456,600s26.628-132.667,74.981-181.02C-1332.667,370.629-1268.38,344-1200,344 M-1200,88
		c-282.769,0-512,229.23-512,512s229.231,512,512,512c282.77,0,512-229.23,512-512S-917.23,88-1200,88L-1200,88z"/>
	<path fill="#F7EFCF" d="M-1618.482,798.073c43.361,2.402,73.778-9.494,134.087-33.988
		c150.396-61.082,216.707-136.037,322.483-262.488c78.303-93.604,181.578-129.655,334.611-154.596
		c12.272-2,6.07-38.001-14.554-61.653C-947.146,164.599-1125.605,140.818-1386,275c-277.508,143.001-337,410.335-262.333,505.003
		C-1642.674,787.179-1627.312,797.585-1618.482,798.073z"/>
	<path fill="#F7EFCF" d="M-808.655,382.074c-82.785,18.078-203.683,91.184-299.678,187.929
		c-95.996,96.744-157.645,190.926-318.177,242.768c-60.918,19.672-125.117,21.305-154.65,35.232c-14.84,7-11.917,30.566-4.016,41.1
		c26.176,34.9,58.676,64.9,92.51,82.232c152.047,77.896,304.361,61.721,483.666-37c187.971-103.49,273.655-222.27,282.566-373.239
		c2.952-50.007-15.235-115.253-40.177-160.672C-777,381.5-793.328,378.727-808.655,382.074z"/>
</g>
<g>
	<g opacity="0.5">
		<path fill="#CC88AA" d="M786.323-1456c29.408,90.812,54.994,169.841,58.502,180.73C852.24-1251.091,856-1225.77,856-1200
			c0,68.38-26.629,132.667-74.98,181.02C732.667-970.629,668.38-944,600-944s-132.667-26.629-181.02-74.98
			C370.629-1067.333,344-1131.62,344-1200c0-25.743,3.751-51.037,11.151-75.196c3.415-10.604,29.05-89.786,58.525-180.804H786.323
			 M972.504-1712H227.496c0,0-115.364,356.167-116.537,359.941L110.94-1352h0.001C96.032-1303.978,88-1252.927,88-1200
			c0,282.77,229.23,512,512,512s512-229.23,512-512c0-52.927-8.032-103.978-22.941-152h0.001l-0.019-0.059
			C1087.868-1355.833,972.504-1712,972.504-1712L972.504-1712z"/>
	</g>
	<path fill="#AF477F" d="M204.642-1417.926c82.785,18.078,203.683,91.184,299.678,187.929
		c95.996,96.744,157.645,190.926,318.177,242.768c60.918,19.672,125.117,21.305,154.65,35.232c14.84,7,11.917,30.566,4.016,41.1
		c-26.176,34.9-58.676,64.9-92.51,82.232c-152.047,77.896-304.361,61.721-483.666-37
		c-187.971-103.49-273.655-222.27-282.566-373.239c-2.952-50.007,15.235-115.253,40.177-160.672
		C172.986-1418.5,189.314-1421.273,204.642-1417.926z"/>
</g>
<g>
	<rect display="none" fill="#AF477F" width="1200" height="1200"/>
	<path opacity="0.5" fill="#F7EFCF" d="M786.323,344c29.464,90.982,55.086,170.125,58.519,180.784
		C852.246,548.947,856,574.25,856,600c0,68.38-26.629,132.667-74.98,181.02C732.667,829.371,668.38,856,600,856
		s-132.667-26.629-181.02-74.98C370.629,732.667,344,668.38,344,600c0-25.726,3.745-51,11.136-75.145
		c3.339-10.371,29.011-89.666,58.541-180.855H786.323 M972.504,88H227.496c0,0-115.364,356.167-116.537,359.942L110.94,448h0.001
		C96.032,496.023,88,547.073,88,600c0,282.77,229.23,512,512,512s512-229.23,512-512c0-52.927-8.032-103.977-22.941-152h0.001
		l-0.019-0.058C1087.868,444.167,972.504,88,972.504,88L972.504,88z"/>
	<path fill="#F7EFCF" d="M204.642,382.074c82.785,18.078,203.683,91.184,299.678,187.929
		c95.996,96.744,157.645,190.926,318.177,242.768c60.918,19.672,125.117,21.305,154.65,35.232c14.84,7,11.917,30.566,4.016,41.1
		c-26.176,34.9-58.676,64.9-92.51,82.232c-152.047,77.896-304.361,61.721-483.666-37
		c-187.971-103.49-273.655-222.27-282.566-373.239c-2.952-50.007,15.235-115.253,40.177-160.672
		C172.986,381.5,189.314,378.727,204.642,382.074z"/>
</g>
<g>
</g>
<g>
</g>
<g>
</g>
<g>
</g>
<g>
</g>
<g>
</g>
</svg>
